Images/svg/Polygon10.svg

<svg width="238" height="207" viewBox="0 0 238 207" fill="none" xmlns="http://www.w3.org/2000/svg">
<path d="M212.746 111.96L217.599 103.5L212.746 95.0402L173.246 26.1912L168.346 17.651L158.5 17.651L79.5 17.651L69.6541 17.651L64.7544 26.1912L25.2544 95.0402L20.4009 103.5L25.2544 111.96L64.7544 180.809L69.6541 189.349H79.5L158.5 189.349H168.346L173.246 180.809L212.746 111.96Z" fill="#FFEAAE" stroke="white" stroke-width="34"/>
</svg>

<svg width="238" height="207" fill="none" xmlns="http://www.w3.org/2000/svg"><path d="M212.746 111.96l4.853-8.46-4.853-8.46-39.5-68.849-4.9-8.54H69.654l-4.9 8.54-39.5 68.85-4.853 8.459 4.853 8.46 39.5 68.849 4.9 8.54H168.346l4.9-8.54 39.5-68.849z" fill="#FFEAAE" stroke="#fff" stroke-width="34"/></svg>
